packages/dnb-eufemia/assets/icons/digipass_medium.svg

<svg width="24" height="24" viewBox="0 0 24 24" fill="none" xmlns="http://www.w3.org/2000/svg">
<path d="M16.5 11.25C16.5 11.6642 16.8358 12 17.25 12C17.6642 12 18 11.6642 18 11.25H16.5ZM5.28769 2.28769L5.81802 2.81802V2.81802L5.28769 2.28769ZM4 24C4.41421 24 4.75 23.6642 4.75 23.25C4.75 22.8358 4.41421 22.5 4 22.5V24ZM11 15.5351L10.7916 14.8147L11 15.5351ZM11 22.4649L10.7916 23.1853L11 22.4649ZM14.5 18.25C14.0858 18.25 13.75 18.5858 13.75 19C13.75 19.4142 14.0858 19.75 14.5 19.75V18.25ZM18.5 19.75C18.9142 19.75 19.25 19.4142 19.25 19C19.25 18.5858 18.9142 18.25 18.5 18.25V19.75ZM15.75 10.5C16.1642 10.5 16.5 10.8358 16.5 11.25H18C18 10.0074 16.9926 9 15.75 9V10.5ZM2.25 22.5C1.83579 22.5 1.5 22.1642 1.5 21.75H0C0 22.9926 1.00736 24 2.25 24V22.5ZM1.5 21.75V11.25H0V21.75H1.5ZM1.5 11.25C1.5 10.8358 1.83579 10.5 2.25 10.5V9C1.00736 9 0 10.0074 0 11.25H1.5ZM4.5 6C4.5 4.80653 4.97411 3.66193 5.81802 2.81802L4.75736 1.75736C3.63214 2.88258 3 4.4087 3 6H4.5ZM5.81802 2.81802C6.66193 1.97411 7.80653 1.5 9 1.5V0C7.4087 0 5.88258 0.632141 4.75736 1.75736L5.81802 2.81802ZM9 1.5C10.1935 1.5 11.3381 1.97411 12.182 2.81802L13.2426 1.75736C12.1174 0.632141 10.5913 0 9 0V1.5ZM12.182 2.81802C13.0259 3.66193 13.5 4.80653 13.5 6H15C15 4.4087 14.3679 2.88258 13.2426 1.75736L12.182 2.81802ZM14.25 10.5H15.75V9H14.25V10.5ZM13.5 6V9.75H15V6H13.5ZM2.25 10.5H3.75V9H2.25V10.5ZM3.75 10.5H14.25V9H3.75V10.5ZM4.5 9.75V6H3V9.75H4.5ZM4 22.5H2.25V24H4V22.5ZM22.25 19C22.25 19.6674 21.6894 20.4736 20.3214 21.1576C18.9983 21.8192 17.118 22.25 15 22.25V23.75C17.3003 23.75 19.42 23.2854 20.9923 22.4992C22.5197 21.7355 23.75 20.5417 23.75 19H22.25ZM15 15.75C17.118 15.75 18.9983 16.1808 20.3214 16.8424C21.6894 17.5264 22.25 18.3326 22.25 19H23.75C23.75 17.4583 22.5197 16.2645 20.9923 15.5008C19.42 14.7146 17.3003 14.25 15 14.25V15.75ZM7.75 19C7.75 18.5528 7.99057 18.0508 8.58845 17.5437C9.18566 17.0371 10.0806 16.5818 11.2084 16.2556L10.7916 14.8147C9.52819 15.1801 8.42313 15.7169 7.61815 16.3998C6.81383 17.082 6.25 17.9667 6.25 19H7.75ZM11.2084 16.2556C12.312 15.9364 13.6076 15.75 15 15.75V14.25C13.4781 14.25 12.0413 14.4532 10.7916 14.8147L11.2084 16.2556ZM15 22.25C13.6076 22.25 12.312 22.0636 11.2084 21.7444L10.7916 23.1853C12.0413 23.5468 13.4781 23.75 15 23.75V22.25ZM11.2084 21.7444C10.0806 21.4182 9.18566 20.9629 8.58845 20.4563C7.99057 19.9492 7.75 19.4472 7.75 19H6.25C6.25 20.0333 6.81383 20.918 7.61815 21.6002C8.42313 22.2831 9.52819 22.8199 10.7916 23.1853L11.2084 21.7444ZM10.314 15.8383C10.7601 16.8478 11.4037 19.5933 10.3096 22.1719L11.6904 22.7578C12.9963 19.6802 12.2399 16.4855 11.686 15.232L10.314 15.8383ZM14.5 19.75H18.5V18.25H14.5V19.75Z" fill="black"/>
</svg>

<svg width="24" height="24" viewBox="0 0 24 24" fill="none" xmlns="http://www.w3.org/2000/svg"><path d="M16.5 11.25a.75.75 0 0 0 1.5 0h-1.5ZM5.288 2.288l.53.53-.53-.53ZM4 24a.75.75 0 0 0 0-1.5V24Zm7-8.465-.208-.72.208.72Zm0 6.93-.208.72.208-.72Zm3.5-4.215a.75.75 0 0 0 0 1.5v-1.5Zm4 1.5a.75.75 0 0 0 0-1.5v1.5Zm-2.75-9.25a.75.75 0 0 1 .75.75H18A2.25 2.25 0 0 0 15.75 9v1.5Zm-13.5 12a.75.75 0 0 1-.75-.75H0A2.25 2.25 0 0 0 2.24 24v-1.5Zm-.75-.75v-10.5H0v10.5h1.5Zm0-10.5a.75.75 0 0 1 .75-.75V9A2.25 2.25 0 0 0 0 11.25h1.5ZM4.5 6a4.5 4.5 0 0 1 1.318-3.182l-1.06-1.06A6 6 0 0 0 3 6h1.5Zm1.318-3.182A4.5 4.5 0 0 1 9 1.5V0a6 6 0 0 0-4.243 1.757l1.061 1.061ZM9 1.5a4.5 4.5 0 0 1 3.182 1.318l1.06-1.06A6 6 0 0 0 9 0v1.5Zm3.182 1.318A4.5 4.5 0 0 1 13.5 6H15a6 6 0 0 0-1.757-4.243l-1.061 1.061ZM14.25 10.5h1.5V9h-1.5v1.5ZM13.5 6v3.75H15V6h-1.5ZM2.25 10.5h1.5V9h-1.5v1.5Zm1.5 0h10.5V9H3.75v1.5Zm.75-.75V6H3v3.75h1.5ZM4 22.5H2.25V24H4v-1.5ZM22.25 19c0 .667-.56 1.474-1.929 2.158-1.323.661-3.203 1.092-5.321 1.092v1.5c2.3 0 4.42-.465 5.992-1.25 1.528-.765 2.758-1.958 2.758-3.5h-1.5ZM15 15.75c2.118 0 3.998.43 5.321 1.092 1.368.684 1.929 1.49 1.929 2.158h1.5c0-1.542-1.23-2.735-2.758-3.5-1.572-.785-3.692-1.25-5.992-1.25v1.5ZM7.75 19c0-.447.24-.95.838-1.456.598-.507 1.493-.962 2.62-1.288l-.416-1.441c-1.264.365-2.369.902-3.174 1.585-.804.682-1.368 1.567-1.368 2.6h1.5Zm3.458-2.744c1.104-.32 2.4-.506 3.792-.506v-1.5c-1.522 0-2.959.203-4.208.565l.416 1.44ZM15 22.25c-1.392 0-2.688-.186-3.792-.506l-.416 1.441c1.25.362 2.686.565 4.208.565v-1.5Zm-3.792-.506c-1.127-.326-2.022-.781-2.62-1.288-.597-.507-.838-1.009-.838-1.456h-1.5c0 1.033.564 1.918 1.368 2.6.805.683 1.91 1.22 3.174 1.585l.416-1.44Zm-.894-5.906c.446 1.01 1.09 3.755-.004 6.334l1.38.586c1.306-3.078.55-6.273-.004-7.526l-1.372.606ZM14.5 19.75h4v-1.5h-4v1.5Z" fill="#000"/></svg>
